humanity-icon-theme/Humanity/devices/64/media-optical.svg

<?xml version="1.0" encoding="UTF-8" standalone="no"?>
<!-- Created with Inkscape (http://www.inkscape.org/) -->
<svg
   xmlns:svg="http://www.w3.org/2000/svg"
   xmlns="http://www.w3.org/2000/svg"
   xmlns:xlink="http://www.w3.org/1999/xlink"
   version="1.0"
   width="64"
   height="64"
   id="svg3310">
  <defs
     id="defs3312">
    <linearGradient
       id="linearGradient23419">
      <stop
         id="stop23421"
         style="stop-color:#000000;stop-opacity:1"
         offset="0" />
      <stop
         id="stop23423"
         style="stop-color:#000000;stop-opacity:0"
         offset="1" />
    </linearGradient>
    <radialGradient
       cx="23.334524"
       cy="41.63604"
       r="22.627417"
       fx="23.334524"
       fy="41.63604"
       id="radialGradient2528"
       xlink:href="#linearGradient23419"
       gradientUnits="userSpaceOnUse"
       gradientTransform="matrix(1.281631,0,0,0.3756156,2.0937489,36.860857)" />
    <linearGradient
       id="linearGradient3772">
      <stop
         id="stop3774"
         style="stop-color:#b4b4b4;stop-opacity:1"
         offset="0" />
      <stop
         id="stop3776"
         style="stop-color:#969696;stop-opacity:1"
         offset="1" />
    </linearGradient>
    <linearGradient
       x1="-21.915663"
       y1="3"
       x2="-21.915663"
       y2="45.032898"
       id="linearGradient2525"
       xlink:href="#linearGradient3772"
       gradientUnits="userSpaceOnUse"
       gradientTransform="matrix(1.3414634,0,0,1.3414634,67.233617,-0.195122)" />
    <linearGradient
       x1="12.2744"
       y1="32.4165"
       x2="35.391201"
       y2="14.2033"
       id="linearGradient3263"
       gradientUnits="userSpaceOnUse">
      <stop
         id="stop3265"
         style="stop-color:#dedbde;stop-opacity:1"
         offset="0" />
      <stop
         id="stop3267"
         style="stop-color:#e6e6e6;stop-opacity:1"
         offset="0.5" />
      <stop
         id="stop3269"
         style="stop-color:#d2d2d2;stop-opacity:1"
         offset="1" />
    </linearGradient>
    <linearGradient
       x1="12.2744"
       y1="32.4165"
       x2="35.391201"
       y2="14.2033"
       id="linearGradient2523"
       xlink:href="#linearGradient3263"
       gradientUnits="userSpaceOnUse"
       gradientTransform="matrix(0,1.5714424,-1.5714424,0,68.300327,-5.7146268)" />
    <linearGradient
       id="linearGradient3428">
      <stop
         id="stop3430"
         style="stop-color:#aaaaaa;stop-opacity:1"
         offset="0" />
      <stop
         id="stop3432"
         style="stop-color:#d4d4d4;stop-opacity:1"
         offset="1" />
    </linearGradient>
    <linearGradient
       x1="21.448364"
       y1="15.5"
       x2="21.448364"
       y2="32.509201"
       id="linearGradient2519"
       xlink:href="#linearGradient3428"
       gradientUnits="userSpaceOnUse"
       gradientTransform="matrix(1.3125,0,0,1.3125,0.5000004,0.4999995)" />
    <linearGradient
       x1="18.775953"
       y1="4.0378027"
       x2="18.203465"
       y2="45.962208"
       id="linearGradient2516"
       xlink:href="#linearGradient6036"
       gradientUnits="userSpaceOnUse"
       gradientTransform="matrix(0.5808777,0,0,0.5808775,17.85737,17.478061)" />
    <linearGradient
       x1="10.609375"
       y1="17.886322"
       x2="9.7297754"
       y2="20.612656"
       id="linearGradient2485"
       xlink:href="#linearGradient3519"
       gradientUnits="userSpaceOnUse"
       spreadMethod="reflect" />
    <linearGradient
       x1="12.371647"
       y1="16.188046"
       x2="14.609327"
       y2="13.461712"
       id="linearGradient2483"
       xlink:href="#linearGradient3511"
       gradientUnits="userSpaceOnUse"
       spreadMethod="reflect" />
    <linearGradient
       x1="14.084608"
       y1="13.045606"
       x2="16.994024"
       y2="10.732353"
       id="linearGradient2481"
       xlink:href="#linearGradient3503"
       gradientUnits="userSpaceOnUse"
       spreadMethod="reflect" />
    <linearGradient
       x1="17.494959"
       y1="11.200086"
       x2="21.047453"
       y2="9.7956104"
       id="linearGradient2479"
       xlink:href="#linearGradient3495"
       gradientUnits="userSpaceOnUse"
       spreadMethod="reflect" />
    <linearGradient
       x1="20.580074"
       y1="10.774516"
       x2="24.27351"
       y2="9.8622112"
       id="linearGradient2477"
       xlink:href="#linearGradient3487"
       gradientUnits="userSpaceOnUse"
       spreadMethod="reflect" />
    <linearGradient
       id="linearGradient6036">
      <stop
         id="stop6038"
         style="stop-color:#ffffff;stop-opacity:1"
         offset="0" />
      <stop
         id="stop6040"
         style="stop-color:#ffffff;stop-opacity:0"
         offset="1" />
    </linearGradient>
    <linearGradient
       x1="10.50172"
       y1="3.6100161"
       x2="48.798885"
       y2="54.698483"
       id="linearGradient2507"
       xlink:href="#linearGradient6036"
       gradientUnits="userSpaceOnUse"
       gradientTransform="matrix(1.338544,0,0,1.3385441,-0.5895336,-1.4635946)" />
    <linearGradient
       id="linearGradient3519">
      <stop
         id="stop3521"
         style="stop-color:#fcd9cd;stop-opacity:1"
         offset="0" />
      <stop
         id="stop3523"
         style="stop-color:#fcd9cd;stop-opacity:0"
         offset="1" />
    </linearGradient>
    <linearGradient
       x1="10.609375"
       y1="17.886322"
       x2="9.7297754"
       y2="20.612656"
       id="linearGradient2497"
       xlink:href="#linearGradient3519"
       gradientUnits="userSpaceOnUse"
       spreadMethod="reflect" />
    <linearGradient
       id="linearGradient3511">
      <stop
         id="stop3513"
         style="stop-color:#ebeec7;stop-opacity:1"
         offset="0" />
      <stop
         id="stop3515"
         style="stop-color:#ebeec7;stop-opacity:0"
         offset="1" />
    </linearGradient>
    <linearGradient
       x1="12.371647"
       y1="16.188046"
       x2="14.609327"
       y2="13.461712"
       id="linearGradient2495"
       xlink:href="#linearGradient3511"
       gradientUnits="userSpaceOnUse"
       spreadMethod="reflect" />
    <linearGradient
       id="linearGradient3503">
      <stop
         id="stop3505"
         style="stop-color:#c4ebdd;stop-opacity:1"
         offset="0" />
      <stop
         id="stop3507"
         style="stop-color:#c4ebdd;stop-opacity:0"
         offset="1" />
    </linearGradient>
    <linearGradient
       x1="14.084608"
       y1="13.045606"
       x2="16.994024"
       y2="10.732353"
       id="linearGradient2493"
       xlink:href="#linearGradient3503"
       gradientUnits="userSpaceOnUse"
       spreadMethod="reflect" />
    <linearGradient
       id="linearGradient3495">
      <stop
         id="stop3497"
         style="stop-color:#c1cbe4;stop-opacity:1"
         offset="0" />
      <stop
         id="stop3499"
         style="stop-color:#c1cbe4;stop-opacity:0"
         offset="1" />
    </linearGradient>
    <linearGradient
       x1="17.494959"
       y1="11.200086"
       x2="21.047453"
       y2="9.7956104"
       id="linearGradient2491"
       xlink:href="#linearGradient3495"
       gradientUnits="userSpaceOnUse"
       spreadMethod="reflect" />
    <linearGradient
       id="linearGradient3487">
      <stop
         id="stop3489"
         style="stop-color:#e6cde2;stop-opacity:1"
         offset="0" />
      <stop
         id="stop3491"
         style="stop-color:#e6cde2;stop-opacity:0"
         offset="1" />
    </linearGradient>
    <linearGradient
       x1="20.580074"
       y1="10.774516"
       x2="24.27351"
       y2="9.8622112"
       id="linearGradient2489"
       xlink:href="#linearGradient3487"
       gradientUnits="userSpaceOnUse"
       spreadMethod="reflect" />
  </defs>
  <g
     id="layer1">
    <path
       d="M 61,52.499999 C 61.001449,57.194291 48.017314,61 32,61 C 15.982686,61 2.9985065,57.194291 3.0000001,52.499999 C 2.9985065,47.805709 15.982686,44 32,44 C 48.017314,44 61.001493,47.805709 61,52.499999 L 61,52.499999 z"
       id="path23417"
       style="opacity:0.3;fill:url(#radialGradient2528);fill-opacity:1;fill-rule:evenodd;stroke:none;stroke-width:2;marker:none;visibility:visible;display:inline;overflow:visible" />
    <path
       d="M 59.5,31.999999 C 59.5,16.757004 47.242994,4.4999999 32,4.4999999 C 16.757002,4.4999999 4.5,16.757005 4.5,31.999999 C 4.4999974,47.242994 16.757004,59.499999 32,59.499999 C 47.242992,59.499996 59.5,47.242996 59.5,31.999999 z M 42.5,31.999999 C 42.5,37.537735 37.64854,42.5 32,42.5 C 26.240655,42.5 21.5,37.425799 21.5,31.999999 C 21.5,26.463373 26.019041,21.5 32,21.5 C 37.980959,21.5 42.5,26.573069 42.5,31.999999 z"
       id="path2781"
       style="fill:url(#linearGradient2523);fill-rule:nonzero;stroke:url(#linearGradient2525);stroke-width:1;stroke-miterlimit:4;stroke-opacity:1" />
    <path
       d="M 31.999999,21.499999 C 26.204,21.499999 21.499999,26.203998 21.499999,31.999998 C 21.499999,37.795997 26.204,42.499998 31.999999,42.499998 C 37.795998,42.499998 42.499998,37.795997 42.499998,31.999998 C 42.499998,26.203998 37.795998,21.499999 31.999999,21.499999 z M 31.999999,26.749998 C 34.897999,26.749998 37.249998,29.101998 37.249998,31.999998 C 37.249998,34.897998 34.897999,37.249997 31.999999,37.249997 C 29.101999,37.249997 26.749999,34.897998 26.749999,31.999998 C 26.749999,29.101998 29.101999,26.749998 31.999999,26.749998 z"
       id="path3418"
       style="fill:#ffffff;fill-opacity:0.49803922;stroke:url(#linearGradient2519);stroke-width:1;stroke-linecap:butt;stroke-linejoin:round;marker:none;stroke-miterlimit:4;stroke-dasharray:none;stroke-dashoffset:0;stroke-opacity:1;visibility:visible;display:inline;overflow:visible;enable-background:accumulate" />
    <path
       d="M 31.999999,20.5 C 25.625713,20.5 20.499999,25.625713 20.499999,32 C 20.499999,38.374285 25.625713,43.500001 31.999999,43.500001 C 38.374288,43.500001 43.499999,38.374285 43.499999,32 C 43.499999,25.625713 38.374288,20.5 31.999999,20.5 L 31.999999,20.5 L 31.999999,20.5 L 31.999999,20.5 z"
       id="path3281"
       style="opacity:0.8;fill:none;stroke:url(#linearGradient2516);stroke-width:0.99999982;stroke-miterlimit:4;stroke-opacity:1" />
    <g
       transform="matrix(1.3333334,0,0,1.3333334,-1.6e-6,5.889256e-2)"
       id="g3527">
      <path
         d="M 15.856928,5.7307748 L 20.625,16.34375 C 21.660403,15.885186 22.795334,15.625 24,15.625 C 24.03206,15.625 24.06178,15.62464 24.09375,15.625 L 24.10801,4.0047512 C 21.16586,3.9340642 18.564969,4.6620377 15.856927,5.7307748 L 15.856928,5.7307748 z"
         transform="matrix(0.9996011,2.824295e-2,-2.824295e-2,0.9996011,0.6924114,-0.6708346)"
         id="path3296"
         style="opacity:0.8;fill:url(#linearGradient2477);fill-opacity:1;fill-rule:nonzero;stroke:none" />
      <path
         d="M 12.121471,7.9060109 L 19.052497,17.266115 C 19.965606,16.59636 21.018435,16.099051 22.195126,15.840946 C 22.226446,15.834046 22.255386,15.827356 22.286696,15.820856 L 19.857174,4.426276 C 16.968201,4.9876004 14.537644,6.2818798 12.121471,7.9060109 L 12.121471,7.9060109 z"
         id="path3308"
         style="opacity:0.8;fill:url(#linearGradient2479);fill-opacity:1;fill-rule:nonzero;stroke:none" />
      <path
         d="M 8.2523933,11.646535 L 17.466117,18.802353 C 18.174767,17.919089 19.063008,17.166234 20.132802,16.612373 C 20.161272,16.597633 20.187492,16.583653 20.216052,16.569273 L 14.86585,6.2506132 C 12.220599,7.5405321 10.165881,9.452393 8.2523933,11.646535 z"
         id="path3310"
         style="opacity:0.8;fill:url(#linearGradient2481);fill-opacity:1;fill-rule:nonzero;stroke:none" />
      <path
         d="M 5.6328855,16.073974 C 12.807692,18.316222 13.483148,23.105437 18.409671,17.828101 L 10.499985,9.1321388 C 8.2787249,11.062747 6.9132871,13.459349 5.6328855,16.073974 z"
         id="path3312"
         style="opacity:0.8;fill:url(#linearGradient2483);fill-opacity:1;fill-rule:nonzero;stroke:none" />
      <path
         d="M 7.155289,13.193173 C 5.9722117,14.945185 5.2475768,16.829547 4.6301929,18.837116 L 15.96875,21.8125 C 16.184264,21.049497 16.486796,20.297733 16.9375,19.59375 C 16.95479,19.56675 16.98246,19.52673 17,19.5 L 7.155289,13.193173 z"
         id="path3314"
         style="opacity:0.8;fill:url(#linearGradient2485);fill-opacity:1;fill-rule:nonzero;stroke:none" />
    </g>
    <path
       d="M 32.000001,5.5 C 17.311429,5.5 5.4999996,17.311431 5.4999996,32.000002 C 5.4999996,46.688574 17.311429,58.500001 32.000001,58.500001 C 46.688573,58.500001 58.499999,46.688574 58.499999,32.000002 C 58.499999,17.311431 46.688573,5.5 32.000001,5.5 L 32.000001,5.5 L 32.000001,5.5 z"
       id="path3272"
       style="opacity:0.4;fill:none;stroke:url(#linearGradient2507);stroke-width:0.99999988;stroke-miterlimit:4;stroke-opacity:1" />
    <g
       transform="matrix(-1.3333334,0,0,-1.3333334,64,64.046673)"
       id="g3297">
      <path
         d="M 15.856928,5.7307748 L 20.625,16.34375 C 21.660403,15.885186 22.795334,15.625 24,15.625 C 24.03206,15.625 24.06178,15.62464 24.09375,15.625 L 24.10801,4.0047512 C 21.16586,3.9340642 18.564969,4.6620377 15.856927,5.7307748 L 15.856928,5.7307748 z"
         transform="matrix(0.9996011,2.824295e-2,-2.824295e-2,0.9996011,0.6924114,-0.6708346)"
         id="path3299"
         style="opacity:0.8;fill:url(#linearGradient2489);fill-opacity:1;fill-rule:nonzero;stroke:none" />
      <path
         d="M 12.121471,7.9060109 L 19.052497,17.266115 C 19.965606,16.59636 21.018435,16.099051 22.195126,15.840946 C 22.226446,15.834046 22.255386,15.827356 22.286696,15.820856 L 19.857174,4.426276 C 16.968201,4.9876004 14.537644,6.2818798 12.121471,7.9060109 L 12.121471,7.9060109 z"
         id="path3301"
         style="opacity:0.8;fill:url(#linearGradient2491);fill-opacity:1;fill-rule:nonzero;stroke:none" />
      <path
         d="M 8.2523933,11.646535 L 17.466117,18.802353 C 18.174767,17.919089 19.063008,17.166234 20.132802,16.612373 C 20.161272,16.597633 20.187492,16.583653 20.216052,16.569273 L 14.86585,6.2506132 C 12.220599,7.5405321 10.165881,9.452393 8.2523933,11.646535 z"
         id="path3303"
         style="opacity:0.8;fill:url(#linearGradient2493);fill-opacity:1;fill-rule:nonzero;stroke:none" />
      <path
         d="M 5.6328855,16.073974 C 12.807692,18.316222 13.483148,23.105437 18.409671,17.828101 L 10.499985,9.1321388 C 8.2787249,11.062747 6.9132871,13.459349 5.6328855,16.073974 z"
         id="path3305"
         style="opacity:0.8;fill:url(#linearGradient2495);fill-opacity:1;fill-rule:nonzero;stroke:none" />
      <path
         d="M 7.155289,13.193173 C 5.9722117,14.945185 5.2475768,16.829547 4.6301929,18.837116 L 15.96875,21.8125 C 16.184264,21.049497 16.486796,20.297733 16.9375,19.59375 C 16.95479,19.56675 16.98246,19.52673 17,19.5 L 7.155289,13.193173 z"
         id="path3307"
         style="opacity:0.8;fill:url(#linearGradient2497);fill-opacity:1;fill-rule:nonzero;stroke:none" />
    </g>
  </g>
</svg>

<?xml version="1.0" encoding="UTF-8" standalone="no"?>
<!-- Created with Inkscape (http://www.inkscape.org/) -->
<svg id="svg3310" xmlns="http://www.w3.org/2000/svg" height="64" width="64" version="1.0" xmlns:xlink="http://www.w3.org/1999/xlink">
 <defs id="defs3312">
  <radialGradient id="radialGradient2528" gradientUnits="userSpaceOnUse" cy="41.636" cx="23.335" gradientTransform="matrix(1.2816 0 0 .37562 2.0937 36.861)" r="22.627">
   <stop id="stop23421" offset="0"/>
   <stop id="stop23423" style="stop-opacity:0" offset="1"/>
  </radialGradient>
  <linearGradient id="linearGradient2525" y2="45.033" gradientUnits="userSpaceOnUse" x2="-21.916" gradientTransform="matrix(1.3415 0 0 1.3415 67.234 -.19512)" y1="3" x1="-21.916">
   <stop id="stop3774" style="stop-color:#b4b4b4" offset="0"/>
   <stop id="stop3776" style="stop-color:#969696" offset="1"/>
  </linearGradient>
  <linearGradient id="linearGradient2523" y2="14.203" gradientUnits="userSpaceOnUse" x2="35.391" gradientTransform="matrix(0 1.5714 -1.5714 0 68.3 -5.7146)" y1="32.416" x1="12.274">
   <stop id="stop3265" style="stop-color:#dedbde" offset="0"/>
   <stop id="stop3267" style="stop-color:#e6e6e6" offset=".5"/>
   <stop id="stop3269" style="stop-color:#d2d2d2" offset="1"/>
  </linearGradient>
  <linearGradient id="linearGradient2519" y2="32.509" gradientUnits="userSpaceOnUse" x2="21.448" gradientTransform="matrix(1.3125 0 0 1.3125 0.5 0.5)" y1="15.5" x1="21.448">
   <stop id="stop3430" style="stop-color:#aaa" offset="0"/>
   <stop id="stop3432" style="stop-color:#d4d4d4" offset="1"/>
  </linearGradient>
  <linearGradient id="linearGradient2516" y2="45.962" xlink:href="#linearGradient6036" gradientUnits="userSpaceOnUse" x2="18.203" gradientTransform="matrix(.58088 0 0 .58088 17.857 17.478)" y1="4.0378" x1="18.776"/>
  <linearGradient id="linearGradient2485" y2="20.613" xlink:href="#linearGradient3519" spreadMethod="reflect" gradientUnits="userSpaceOnUse" x2="9.7298" y1="17.886" x1="10.609"/>
  <linearGradient id="linearGradient2483" y2="13.462" xlink:href="#linearGradient3511" spreadMethod="reflect" gradientUnits="userSpaceOnUse" x2="14.609" y1="16.188" x1="12.372"/>
  <linearGradient id="linearGradient2481" y2="10.732" xlink:href="#linearGradient3503" spreadMethod="reflect" gradientUnits="userSpaceOnUse" x2="16.994" y1="13.046" x1="14.085"/>
  <linearGradient id="linearGradient2479" y2="9.7956" xlink:href="#linearGradient3495" spreadMethod="reflect" gradientUnits="userSpaceOnUse" x2="21.047" y1="11.2" x1="17.495"/>
  <linearGradient id="linearGradient2477" y2="9.8622" xlink:href="#linearGradient3487" spreadMethod="reflect" gradientUnits="userSpaceOnUse" x2="24.274" y1="10.775" x1="20.58"/>
  <linearGradient id="linearGradient6036">
   <stop id="stop6038" style="stop-color:#fff" offset="0"/>
   <stop id="stop6040" style="stop-color:#fff;stop-opacity:0" offset="1"/>
  </linearGradient>
  <linearGradient id="linearGradient2507" y2="54.698" xlink:href="#linearGradient6036" gradientUnits="userSpaceOnUse" x2="48.799" gradientTransform="matrix(1.3385 0 0 1.3385 -.58953 -1.4636)" y1="3.61" x1="10.502"/>
  <linearGradient id="linearGradient3519">
   <stop id="stop3521" style="stop-color:#fcd9cd" offset="0"/>
   <stop id="stop3523" style="stop-color:#fcd9cd;stop-opacity:0" offset="1"/>
  </linearGradient>
  <linearGradient id="linearGradient3511">
   <stop id="stop3513" style="stop-color:#ebeec7" offset="0"/>
   <stop id="stop3515" style="stop-color:#ebeec7;stop-opacity:0" offset="1"/>
  </linearGradient>
  <linearGradient id="linearGradient3503">
   <stop id="stop3505" style="stop-color:#c4ebdd" offset="0"/>
   <stop id="stop3507" style="stop-color:#c4ebdd;stop-opacity:0" offset="1"/>
  </linearGradient>
  <linearGradient id="linearGradient3495">
   <stop id="stop3497" style="stop-color:#c1cbe4" offset="0"/>
   <stop id="stop3499" style="stop-color:#c1cbe4;stop-opacity:0" offset="1"/>
  </linearGradient>
  <linearGradient id="linearGradient3487">
   <stop id="stop3489" style="stop-color:#e6cde2" offset="0"/>
   <stop id="stop3491" style="stop-color:#e6cde2;stop-opacity:0" offset="1"/>
  </linearGradient>
 </defs>
 <g id="layer1">
  <path id="path23417" style="opacity:.3;fill-rule:evenodd;fill:url(#radialGradient2528)" d="m61 52.5c0.001 4.694-12.983 8.5-29 8.5s-29.002-3.806-29-8.5c-0.0015-4.694 12.983-8.5 29-8.5s29.001 3.806 29 8.5z"/>
  <path id="path2781" style="stroke:url(#linearGradient2525);fill:url(#linearGradient2523)" d="m59.5 32c0-15.243-12.257-27.5-27.5-27.5s-27.5 12.257-27.5 27.5 12.257 27.5 27.5 27.5 27.5-12.257 27.5-27.5zm-17 0c0 5.538-4.851 10.5-10.5 10.5-5.759 0-10.5-5.074-10.5-10.5 0-5.537 4.519-10.5 10.5-10.5s10.5 5.073 10.5 10.5z"/>
  <path id="path3418" style="stroke-linejoin:round;fill-opacity:.49804;stroke:url(#linearGradient2519);fill:#fff" d="m32 21.5c-5.796 0-10.5 4.704-10.5 10.5s4.704 10.5 10.5 10.5 10.5-4.704 10.5-10.5-4.704-10.5-10.5-10.5zm0 5.25c2.898 0 5.25 2.352 5.25 5.25s-2.352 5.25-5.25 5.25-5.25-2.352-5.25-5.25 2.352-5.25 5.25-5.25z"/>
  <path id="path3281" style="opacity:.8;stroke:url(#linearGradient2516);fill:none" d="m32 20.5c-6.374 0-11.5 5.126-11.5 11.5s5.126 11.5 11.5 11.5 11.5-5.126 11.5-11.5-5.126-11.5-11.5-11.5z"/>
  <g id="g3527" transform="matrix(1.3333 0 0 1.3333 -.0000016 .058893)">
   <path id="path3296" style="opacity:.8;fill:url(#linearGradient2477)" d="m15.857 5.7308l4.768 10.613c1.035-0.459 2.17-0.719 3.375-0.719h0.094l0.014-11.62c-2.942-0.0709-5.543 0.657-8.251 1.7258z" transform="matrix(.99960 .028243 -.028243 .99960 .69241 -.67083)"/>
   <path id="path3308" style="opacity:.8;fill:url(#linearGradient2479)" d="m12.121 7.906l6.931 9.36c0.914-0.67 1.966-1.167 3.143-1.425 0.031-0.007 0.06-0.014 0.092-0.02l-2.43-11.395c-2.889 0.5616-5.319 1.8559-7.736 3.48z"/>
   <path id="path3310" style="opacity:.8;fill:url(#linearGradient2481)" d="m8.2524 11.647l9.2136 7.155c0.709-0.883 1.597-1.636 2.667-2.19 0.028-0.014 0.054-0.028 0.083-0.043l-5.35-10.318c-2.645 1.2895-4.7 3.2014-6.6136 5.396z"/>
   <path id="path3312" style="opacity:.8;fill:url(#linearGradient2483)" d="m5.6329 16.074c7.1751 2.242 7.8501 7.031 12.777 1.754l-7.91-8.6959c-2.2213 1.9309-3.5867 4.3269-4.8671 6.9419z"/>
   <path id="path3314" style="opacity:.8;fill:url(#linearGradient2485)" d="m7.1553 13.193c-1.1831 1.752-1.9077 3.637-2.5251 5.644l11.339 2.975c0.215-0.763 0.518-1.514 0.969-2.218 0.017-0.027 0.044-0.067 0.062-0.094l-9.8447-6.307z"/>
  </g>
  <path id="path3272" style="opacity:.4;stroke:url(#linearGradient2507);fill:none" d="m32 5.5c-14.689 0-26.5 11.811-26.5 26.5s11.811 26.5 26.5 26.5 26.5-11.811 26.5-26.5-11.811-26.5-26.5-26.5z"/>
  <g id="g3297" transform="matrix(-1.3333 0 0 -1.3333 64 64.047)">
   <path id="path3299" style="opacity:.8;fill:url(#linearGradient2477)" d="m15.857 5.7308l4.768 10.613c1.035-0.459 2.17-0.719 3.375-0.719h0.094l0.014-11.62c-2.942-0.0709-5.543 0.657-8.251 1.7258z" transform="matrix(.99960 .028243 -.028243 .99960 .69241 -.67083)"/>
   <path id="path3301" style="opacity:.8;fill:url(#linearGradient2479)" d="m12.121 7.906l6.931 9.36c0.914-0.67 1.966-1.167 3.143-1.425 0.031-0.007 0.06-0.014 0.092-0.02l-2.43-11.395c-2.889 0.5616-5.319 1.8559-7.736 3.48z"/>
   <path id="path3303" style="opacity:.8;fill:url(#linearGradient2481)" d="m8.2524 11.647l9.2136 7.155c0.709-0.883 1.597-1.636 2.667-2.19 0.028-0.014 0.054-0.028 0.083-0.043l-5.35-10.318c-2.645 1.2895-4.7 3.2014-6.6136 5.396z"/>
   <path id="path3305" style="opacity:.8;fill:url(#linearGradient2483)" d="m5.6329 16.074c7.1751 2.242 7.8501 7.031 12.777 1.754l-7.91-8.6959c-2.2213 1.9309-3.5867 4.3269-4.8671 6.9419z"/>
   <path id="path3307" style="opacity:.8;fill:url(#linearGradient2485)" d="m7.1553 13.193c-1.1831 1.752-1.9077 3.637-2.5251 5.644l11.339 2.975c0.215-0.763 0.518-1.514 0.969-2.218 0.017-0.027 0.044-0.067 0.062-0.094l-9.8447-6.307z"/>
  </g>
 </g>
</svg>
